!!!COM: Haydn, Franz Joseph
!!!OTL: String Quartet in B-flat Major
!!!OPS: Opus 71
!!!ONM: No. 1
!!!OMD: Vivace
!!!OMV: 4
!!!SCT: H III:69
!!!SCA: Thematisch-bibliographisches Werkevererzeichnis (A. van Hoboken)
!!!YOR: Trautwein Edition
!!!ENC: Frances Bennion
!!!CDT: 1732/3/31/-1809/5/31/
!!!CNT: Oesterreich
!!!YEC: Copyright (c) 1994, 2000 Center for Computer Assisted Research in the Humanities
!!!YEM: Rights to all derivative editions reserved.
!!!YEM: Refer to licensing agreement for further details.
!!!YEN: United States of America
**kern	**kern	**kern	**kern
*k[b-e-]	*k[b-e-]	*k[b-e-]	*k[b-e-]
*B-:	*B-:	*B-:	*B-:
*clefF4	*clefC3	*clefF	*clefF
*M2/4	*M2/4	*M2/4	*M2/4
4.r	4.r	4.r	4.r
8r	8r	8r	8f
=1	=1	=1	=1
8BB-	8r	8r	4b-
8r	8d	8f	.
8FF	8r	8r	8cc
8r	8A	8e-	16b-
.	.	.	16cc
=2	=2	=2	=2
4BB-	8r	8r	4.b-
.	16B-	8d	.
.	16F	.	.
4r	8D	8d	.
.	8F	8r	8cc
=3	=3	=3	=3
8r	8B-	2r	4dd
8BB-	8r	.	.
8r	8c	.	8ee-
8BB-	8r	.	16dd
.	.	.	16ee-
=4	=4	=4	=4
8r	8d	8r	4.ff
8BB-	4.r	16d	.
.	.	16f	.
8BB-	.	8b-	.
8r	.	8r	16ddd
.	.	.	16ccc
=5	=5	=5	=5
2r	8r	8r	16bb-
.	.	.	16aa
.	8B-	8d	16gg
.	.	.	16ff
.	8c	8e-	16ee-
.	.	.	16dd
.	8d	8f	16cc
.	.	.	16b-
=6	=6	=6	=6
2r	8c	8e-	8a
.	8c	8e-	8a
.	8c	8e-	8a
.	8r	8r	16eee-
.	.	.	16ddd
=7	=7	=7	=7
2r	8r	8r	16ccc
.	.	.	16bb-
.	8c	8e-	16aa
.	.	.	16gg
.	8d	8f	16ff
.	.	.	16ee-
.	8e-	8g	16dd
.	.	.	16cc
=8	=8	=8	=8
4.r	8d	8f	8b-
.	8d	8f	8b-
.	8d	8f	8b-
16BB-	16D	8dd	8ff
16C	16E-	.	.
=9	=9	=9	=9
16D	16F	8dd	8ff
16E-	16G	.	.
16F	16A	8dd	8ff
16G	16B-	.	.
16A	16c	8dd	8ff
16B-	16d	.	.
16c	16e-	8dd	8ff
16d	16f	.	.
=10	=10	=10	=10
4.e-	4.g	4dd	4ff
.	.	8cc	8ee-
8e	16g	8b-	8dd
.	16a	.	.
=11	=11	=11	=11
2f	4b-	4f	8cc
.	.	.	8cc
.	4a	4r	16cc
.	.	.	16b-
.	.	.	16cc
.	.	.	16dd
=12	=12	=12	=12
4B-	4b-	8r	4b-
.	.	16d	.
.	.	16f	.
4r	4r	8b-	8r
.	.	8r	16ddd
.	.	.	16ccc
=13	=13	=13	=13
8r	8r	2r	16bb-
.	.	.	16aa
8B-	8d	.	16gg
.	.	.	16ff
8c	8e-	.	16ee-
.	.	.	16dd
8d	8f	.	16cc
.	.	.	16b-
=14	=14	=14	=14
8c	8e-	8f	8a
8c	8e-	8f	8a
8c	8e-	8f	8a
8r	8r	8r	16eee-
.	.	.	16ddd
=15	=15	=15	=15
8r	8r	2r	16ccc
.	.	.	16bb-
8c	8e-	.	16aa
.	.	.	16gg
8d	8f	.	16ff
.	.	.	16ee-
8e-	8g	.	16dd
.	.	.	16cc
=16	=16	=16	=16
8d	8f	8a-	8b
8d	8f	8a-	8b
8d	8f	8a-	8b
8r	16G	16B	16fff
.	16A	16c	16eee-
=17	=17	=17	=17
2G	16B	16d	16ddd
.	16c	16e-	16ccc
.	16d	16f	16bb
.	16e-	16g	16aa-
.	16f	16a	16gg
.	16g	16b	16ff
.	16a	16cc	16ee-
.	16b	16dd	16dd
=18	=18	=18	=18
4C	16cc	16ee-	8ee-
.	16b-	16dd	.
.	16a	16cc	4ccc
.	16g	16b-	.
8r	16f	16a	.
.	16e-	16g	.
8F	16d	16f	8aa
.	16c	16e-	.
=19	=19	=19	=19
8B-	8B-	8d	16bb-
.	.	.	16ff
8r	8r	8r	16dd
.	.	.	16ff
8F	8A	8e-	16ee-
.	.	.	16cc
8r	8r	8r	16a
.	.	.	16cc
=20	=20	=20	=20
8BB-	8B-	4.d	4.b-
8BB-	8f	.	.
8BB-	8b-	.	.
8BB-	8a	8e-	8cc
=21	=21	=21	=21
8BB-	8b-	8d	8b-
8BB-	8a	8e-	8cc
8BB-	8b-	8d	8b-
8BB-	8a	8e-	8cc
=22	=22	=22	=22
8BB-	8b-	2d	8b-
8BB-	4f	.	8dd
8BB-	.	.	8ff
8BB-	8f#	.	16ee-
.	.	.	16dd
=23	=23	=23	=23
8BB-	4.g	4.e-	4.cc
8BB-	.	.	.
8BB-	.	.	.
8BB-	8a-	8f	8b
=24	=24	=24	=24
8BB-	8g	8e-	8cc
8BB-	8a-	8f	8b
8BB-	8g	8e-	8cc
8BB-	8a-	8f	8b
=25	=25	=25	=25
8BB-	2g	2e-	8cc
8BB-	.	.	8ee-
8BB-	.	.	8gg
8BB-	.	.	16ff
.	.	.	16ee-
=26	=26	=26	=26
8BB-	4.a-	4.f	4.dd
8BB-	.	.	.
8BB-	.	.	.
8BB-	8g	8e-	8ee-
=27	=27	=27	=27
8BB-	8a-	8f	8dd
8BB-	8g	8e-	8ee-
8BB-	8a-	8f	8dd
8BB-	8g	8e-	8ee-
=28	=28	=28	=28
8BB-	4.a-	4.f	16dd
.	.	.	16ee-
8BB-	.	.	16ff
.	.	.	16gg
8BB-	.	.	8aa-
8BB-	8d	8b-	16gg
.	.	.	16ff
=29	=29	=29	=29
4E-	4e-	2b-	8ff#
.	.	.	4gg
4r	4d	.	.
.	.	.	[8ff
=30	=30	=30	=30
2r	4c	4a	8ff]
.	.	.	4ee-
.	4B-	4b-	.
.	.	.	[8dd
=31	=31	=31	=31
2r	4e-	2g	8dd]
.	.	.	4cc
.	4e	.	.
.	.	.	8b-
=32	=32	=32	=32
2r	4f	4f	16a
.	.	.	16cc
.	.	.	16b-
.	.	.	16a
.	4r	4r	16b-
.	.	.	16cc
.	.	.	16dd
.	.	.	16ee
=33	=33	=33	=33
2r	2r	8r	4ff
.	.	8f	.
.	.	8e	8gg
.	.	8c	16ff
.	.	.	16gg
=34	=34	=34	=34
2r	4.r	4f	4aa
.	.	8g	8bb-
.	8c	16f	16aa
.	.	16g	16bb-
=35	=35	=35	=35
2r	4f	4a	8aa
.	.	.	4ccc
.	8g	8b-	.
.	16f	16a	8ee
.	16g	16b-	.
=36	=36	=36	=36
2r	8a	8cc	16ff
.	.	.	16gg
.	4f	4a	16aa
.	.	.	16bb-
.	.	.	8ccc
.	16g	16b-	8ee
.	32f	32a	.
.	32g	32b-	.
=37	=37	=37	=37
2r	8a	8cc	8ff
.	8c#	8e	4aa
.	8d	8f	.
.	8e	8g	8cc#
=38	=38	=38	=38
2r	8f	8a	8dd
.	8A	8c#	4ff
.	8B-	8d	.
.	8c	8e-	8a
=39	=39	=39	=39
8r	8d	8d	8b-
8D	8F#	4b-	4dd
8E	8G	.	.
8F#	8A	8a	8cc
=40	=40	=40	=40
8G	8B-	8g	8b-
8A	8c	8f#	8a
8B-	8d	8g	8g
8B	8d	8g	8f
=41	=41	=41	=41
8c	2e	2g	8e
8c	.	.	8cc
8c	.	.	8cc
8c	.	.	16b
.	.	.	16cc
=42	=42	=42	=42
8c	2d	2b 2f	8b
8c	.	.	8ff
8c	.	.	8ff
8c	.	.	16ee
.	.	.	16ff
=43	=43	=43	=43
8c	2e	2g 2cc	8ee
8c	.	.	8ccc
8c	.	.	8ccc
8c	.	.	16bb
.	.	.	16ccc
=44	=44	=44	=44
8c	2b	2f 2dd	8bb
8c	.	.	8ff
8c	.	.	8ff
8c	.	.	16ee
.	.	.	16ff
=45	=45	=45	=45
[2c	4cc	8g 8cc	8ee
.	.	16ee	16gg
.	.	16ff	16aa
.	8e	8gg	8bb-
.	8f	8ff	8aa
=46	=46	=46	=46
2c]	4g	8ee	8gg
.	.	8dd	8ff
.	4r	8cc	8ee
.	.	8b-	8dd
=47	=47	=47	=47
8C	2r	2a	2cc
8c	.	.	.
8c	.	.	.
8c	.	.	.
=48	=48	=48	=48
8c	2r	2g	2b-
8c	.	.	.
8c	.	.	.
8c	.	.	.
=49	=49	=49	=49
4c	4e-	8f#	8a
.	.	4f#	4a
8B-	8d	.	.
8r	8r	8g	8b-
=50	=50	=50	=50
4B-	4d-	8r	8r
.	.	4e	4g
8A	4c	.	.
8F	.	[8f	[8a
=51	=51	=51	=51
4BB-	8d	8f]	8a]
.	8B-	8d	8g
4C	8A	8c	8f
.	8G	8B-	8e
=52	=52	=52	=52
8r	8r	4f#	4ee-
4A	4c	.	.
.	.	8g	8dd
8B-	8d	8r	8r
=53	=53	=53	=53
8r	8r	4e	4dd-
4G	4B-	.	.
.	.	[4f	[4cc
8A	8c	.	.
=54	=54	=54	=54
4B-	4d	8f]	8cc]
.	.	8g	8b-
4c	8c	8f	8a
.	8B-	8e	8g
=55	=55	=55	=55
8F	8A	8f	16f
.	.	.	16ff
8F	4A	4c	16cc
.	.	.	16a
8F	.	.	16f
.	.	.	16cc
8F	8A	8c	16a
.	.	.	16f
=56	=56	=56	=56
8F	8B-	8e 8G	16e
.	.	.	16bb-
8F	4B-	4e 4G	16gg
.	.	.	16ee
8F	.	.	16cc
.	.	.	16b-
8F	8B-	8e 8G	16g
.	.	.	16e
=57	=57	=57	=57
8F	8A	8f 8A	16f
.	.	.	16ff
8F	4A	4c	16cc
.	.	.	16a
8F	.	.	16f
.	.	.	16cc
8F	8A	8c	16a
.	.	.	16f
=58	=58	=58	=58
8F	8B-	8e 8G	16e
.	.	.	16bb-
8F	4B-	4G 4e	16gg
.	.	.	16ee
8F	.	.	16cc
.	.	.	16b-
8F	8B-	8e 8G	16g
.	.	.	16e
=59	=59	=59	=59
4F	8A	16f	16f
.	.	16a	16cc
.	8r	16g	16b-
.	.	16f	16a
8r	8c	16e	16g
.	.	16g	16b-
8C	8r	16f	16a
.	.	16e	16g
=60	=60	=60	=60
16F	16A	4f	4a
16A	16c	.	.
16G	16B-	.	.
16F	16A	.	.
16E	16G	4r	8r
16G	16B-	.	.
16F	16A	.	16dd
16E	16G	.	16cc
=61	=61	=61	=61
4F	4A	16f	16a
.	.	16a	16cc
.	.	16g	16b-
.	.	16f	16a
8r	4r	16e	16g
.	.	16g	16b-
8C	.	16f	16a
.	.	16e	16g
=62	=62	=62	=62
16F	16A	4f	8a
16A	16c	.	.
16G	16B-	.	4cc
16F	16A	.	.
16E	16G	4r	.
16G	16B-	.	.
16F	16A	.	8cc
16E	16G	.	.
=63	=63	=63	=63
16D	16F	2r	16cc
16F	16A	.	16a
16E	16G	.	16b-
16D	16F	.	16b-
16C	16E	.	16b-
16E	16G	.	16g
16D	16F	.	16a
16C	16E	.	16a
=64	=64	=64	=64
16BB-	4D	16d	16a
16D	.	16f	16d
16C	.	16e	16g
16BB-	.	16d	16g
16AA	4r	16c	16g
16C	.	16e	16e
16BB-	.	16d	16f
16AA	.	16c	16f
=65	=65	=65	=65
4GG	4r	2B-	16e
.	.	.	16f
.	.	.	16g
.	.	.	16a
4CC	4g	.	16b-
.	.	.	16cc
.	.	.	16dd
.	.	.	16ee
=66	=66	=66	=66
4FF	8a	8A	4.ff
.	8a	4cc	.
4r	8a	.	.
.	8b-	8cc	16gg
.	.	.	16ee
=67	=67	=67	=67
2r	8a	[2cc	16ff
.	.	.	16aa
.	8b-	.	16gg
.	.	.	16ee
.	8a	.	16ff
.	.	.	16aa
.	8b-	.	16gg
.	.	.	16ee
=68	=68	=68	=68
2r	8a	2cc_	8ff
.	8a	.	4ff
.	8a	.	.
.	8b-	.	16gg
.	.	.	16ee
=69	=69	=69	=69
2r	8a	2cc]	16ff
.	.	.	16aa
.	8b-	.	16gg
.	.	.	16ee
.	8a	.	16ff
.	.	.	16aa
.	8b-	.	16gg
.	.	.	16ee
=70	=70	=70	=70
2r	4a	2f 2cc	16ff
.	.	.	16gg
.	.	.	16aa
.	.	.	16bb-
.	4A	.	16ccc
.	.	.	16ddd
.	.	.	16eee
.	.	.	16fff
=71	=71	=71	=71
2r	8B-	4f 4dd	8ddd
.	8r	.	8ddd
.	8b-	8r	8r
.	8r	8gg	8bb-
=72	=72	=72	=72
2r	8cc	8r	8r
.	8r	8ff	8aa
.	8b-	8r	8r
.	8r	8ee	8gg
=73	=73	=73	=73
8r	8r	8aa	8ccc
8a	8cc	8r	8r
8r	8r	8gg	8bb-
8g	8b-	8r	8r
=74	=74	=74	=74
8r	8r	8ff	8aa
8f	8a	8r	8r
8r	8r	8cc	8gg
8c	8g	8r	8r
=75	=75	=75	=75
8r	8r	24aa	24ccc
.	.	24aa	24ccc
.	.	24aa	24ccc
8a	8cc	8r	8r
8r	8r	24gg	24bb-
.	.	24gg	24bb-
.	.	24gg	24bb-
8g	8b-	8r	8r
=76	=76	=76	=76
8r	8r	24ff	24aa
.	.	24ff	24aa
.	.	24ff	24aa
8f	8a	8r	8r
8r	8r	24cc	24gg
.	.	24cc	24gg
.	.	24cc	24gg
8c	8g	8r	8r
=77	=77	=77	=77
2r	8r	8r	[2ff
.	8c	8a	.
.	8A	8f	.
.	8d	8b-	.
=78	=78	=78	=78
4.r	8B-	8g	4.ff]
.	8e-	8cc	.
.	8c	8a	.
8A	8cc	8ee-	8ff#
=79	=79	=79	=79
8B-	8b-	8dd	8gg
8F#	8ee-	8cc	8aa
8G	8dd	8b-	8bb-
8BB-	8r	8bb-	8ddd
=80	=80	=80	=80
2C	4.r	8aa	8ccc
.	.	8gg	8bb-
.	.	8ff	8aa
.	8b-	8ee	8gg
=81	=81	=81	=81
8FF	8a	8ff	[2ff
8F	8A	8a	.
8A	8c	8f	.
8G	8B-	8b-	.
=82	=82	=82	=82
8B-	8d	8g	4.ff]
8A	8c	8cc	.
8c	8e-	8a	.
8A	8cc	8ee-	8ff#
=83	=83	=83	=83
8B-	8b-	8dd	8gg
8F#	8ee-	8cc	8aa
8G	8dd	8b-	8bb-
8BB-	8r	8bb-	8ddd
=84	=84	=84	=84
2C	8r	8aa	8ccc
.	8dd	8gg	8bb-
.	8cc	8ff	8aa
.	8b-	8ee	8gg
=85	=85	=85	=85
8FF	4a	4ff	4ff
8F	.	.	.
8F	4c	4A 4f	8r
8F	.	.	8cc
=86	=86	=86	=86
8F	2e 2c	2g 2B-	16b
.	.	.	16cc
8F	.	.	16dd
.	.	.	16cc
8F	.	.	16b-
.	.	.	16a
8F	.	.	16b-
.	.	.	16g
=87	=87	=87	=87
8FF	2c 2f	2A 2f	8f
8F	.	.	4f
8F	.	.	.
8F	.	.	16a
.	.	.	16f
=88	=88	=88	=88
8F	2e 2c	2B- 2g	16e
.	.	.	16f
8F	.	.	16g
.	.	.	16e
8F	.	.	16c
.	.	.	16d
8F	.	.	16e
.	.	.	16c
=89	=89	=89	=89
8FF	8f	8A 8f	8f
8F	4c	4f 4A	4f
8F	.	.	.
8F	8c	8f 8A	8ccc
=90	=90	=90	=90
8FF	8c 8e	8B- 8g	16bb
.	.	.	16ccc
8F	4e 4c	4B- 4g	16ddd
.	.	.	16ccc
8F	.	.	16bb-
.	.	.	16aa
8F	8e 8c	8B- 8g	16bb-
.	.	.	16gg
=91	=91	=91	=91
8FF	8c 8f	8A 8f	8ff
8F	4c 4f	4f 4A	4ff
8F	.	.	.
8F	8f 8c	8A 8f	16aa
.	.	.	16ff
=92	=92	=92	=92
8FF	8e 8c	8g 8B-	16ee
.	.	.	16ff
8F	4e 4c	4B- 4g	16gg
.	.	.	16ee
8F	.	.	16cc
.	.	.	16dd
8F	8e 8c	8B- 8g	16ee
.	.	.	16cc
=93	=93	=93	=93
8FF	4f 4c	4A 4f	16ff
.	.	.	16gg
8F	.	.	16aa
.	.	.	16ff
8FF	4e 4c	4B- 4g	16cc
.	.	.	16dd
8F	.	.	16ee
.	.	.	16cc
=94	=94	=94	=94
8FF	4f 4c	4A 4f	16ff
.	.	.	16gg
8F	.	.	16aa
.	.	.	16ff
8FF	4e 4c	4B- 4g	16cc
.	.	.	16dd
8F	.	.	16ee
.	.	.	16cc
=95	=95	=95	=95
8FF	8c 8f	8f 8A	8ff
8r	8r	8r	8r
8FF	8f 8c	8f 8A	8aa 8cc
8r	8r	8r	8r
=96	=96	=96	=96
4FF	4c 4f	4f 4A	4ff 4a
8r	4r	4r	4r
8c	.	.	.
=97	=97	=97	=97
16B	4.r	2r	2r
16c	.	.	.
16d	.	.	.
16c	.	.	.
16B-	.	.	.
16A	.	.	.
16B-	8cc	.	.
16G	.	.	.
=98	=98	=98	=98
8A	16b	4.r	2r
.	16cc	.	.
8f	16dd	.	.
.	16cc	.	.
8g	16b-	.	.
.	16a	.	.
8c	16b-	8ee	.
.	16g	.	.
=99	=99	=99	=99
4f	4.a	16ee	4.r
.	.	16ff	.
.	.	16gg	.
.	.	16ff	.
4F	.	16ee-	.
.	.	16dd	.
.	8cc	16ee-	8aa
.	.	16cc	.
=100	=100	=100	=100
4.B-	2f	2dd	16aa
.	.	.	16bb-
.	.	.	16ccc
.	.	.	16bb-
.	.	.	16aa-
.	.	.	16gg
8B-	.	.	16aa-
.	.	.	16ff
=101	=101	=101	=101
16B	4.G 4.d	16dd	4.gg
16c	.	16ee-	.
16d	.	16ff	.
16c	.	16ee-	.
16B	.	16dd	.
16A	.	16cc	.
16B	8g	16dd	16g
16G	.	16b	16dd
=102	=102	=102	=102
2c	16f#	4g	16dd
.	16g	.	16ee-
.	16a	.	16ff
.	16g	.	16dd
.	16f	4r	16dd
.	16e-	.	16cc
.	16f	.	16dd
.	16d	.	16b
=103	=103	=103	=103
4C	4e-	4.r	16b
.	.	.	16cc
.	.	.	16dd
.	.	.	16cc
4C#	4e	.	16b-
.	.	.	16a
.	.	8g	16b-
.	.	.	16g
=104	=104	=104	=104
2D	8d	16f#	4a
.	.	16g	.
.	8d	16a	.
.	.	16g	.
.	16f#	16a	8r
.	16g	16b-	.
.	16a	16cc	8dd
.	16g	16b-	.
=105	=105	=105	=105
2D	16a	16cc	16ff#
.	16b-	16dd	16gg
.	16cc	16ee-	16aa
.	16b-	16dd	16gg
.	16a	16ff#	16aa
.	16g	16gg	16bb-
.	16f#	16aa	16ccc
.	16g	16gg	16bb-
=106	=106	=106	=106
16a	16cc	16aa	16ccc
16g	16b-	16bb-	16ddd
16f#	16a	16ccc	16eee-
16g	16b-	16bb-	16ddd
8f#	8a	8ccc	8eee-
8f#	8a	8ccc	8eee-
=107	=107	=107	=107
4.f#	4.a	4.ccc	4.eee-
8g	8b-	8bb-	8ddd
=108	=108	=108	=108
16a	16cc	16aa	16ccc
16g	16b-	16bb-	16ddd
16f#	16a	16ccc	16eee-
16g	16b-	16bb-	16ddd
8f#	8a	8ccc	8eee-
8f#	8a	8ccc	8eee-
=109	=109	=109	=109
4.f#	4.a	4.ccc	4.eee-
8g	8b-	8bb-	8ddd
=110	=110	=110	=110
16a	16cc	16aa	16ccc
16g	16b-	16bb-	16ddd
16f#	16a	16ccc	16eee-
16g	16b-	16bb-	16ddd
8f#	8a	8ccc	8eee-
8CC	8E-	8ccc	8eee-
=111	=111	=111	=111
8EE-	8F#	8aa	8ccc
8EE-	8F#	8aa	8ccc
8FF#	8A	8ff#	8aa
8FF#	8A	8ff#	8aa
=112	=112	=112	=112
8AA	8c	8ee-	8ff#
8AA	8c	8ee-	8ff#
8C	8e-	8cc	8ee-
8C	8e-	8cc	8ee-
=113	=113	=113	=113
8E-	8f#	8a	8cc
8E-	8F#	8a	8cc
8F#	8A	8f#	8a
8F#	8A	8f#	8a
=114	=114	=114	=114
2A	2c	2e-	2f#
=115	=115	=115	=115
2B-	2c#	2e	2g
=116	=116	=116	=116
8D	8G 8d	8g	8b-
8r	8r	8b-	8dd
8D	8A	8r	8r
8r	8r	8a	8cc
=117	=117	=117	=117
8D	8B-	8r	8r
8r	8r	8g	8b-
8D	8c	8r	8r
8r	8r	8f#	8a
=118	=118	=118	=118
8r	8r	24b-	24dd
.	.	24b-	24dd
.	.	24b-	24dd
8B-	8d	8r	8r
8r	8r	24a	24cc
.	.	24a	24cc
.	.	24a	24cc
8A	8c	8r	8r
=119	=119	=119	=119
8r	8r	24g	24b-
.	.	24g	24b-
.	.	24g	24b-
8G	8B-	8r	8r
8r	8r	24f#	24a
.	.	24f#	24a
.	.	24f#	24a
8D	8A	8r	8r
=120	=120	=120	=120
8GG	[2G	8g	[2g
8D	.	8B-	.
8BB-	.	8G	.
8E-	.	8c	.
=121	=121	=121	=121
8C	4.G]	8A	4.g]
8F	.	8d	.
8D	.	8B	.
8F	8B	8d	8a-
=122	=122	=122	=122
8E-	8c	8e-	8g
8F	8d	8a-	8b
8E-	8e-	8g	8cc
8D	8B	8f	8dd
=123	=123	=123	=123
8C	8c	8e-	8ee-
8D	8a-	8b	8dd
8E-	8g	8cc	8cc
8E	8c	8g	8b-
=124	=124	=124	=124
8F	8f	8c	8a
8G	8B-	8e	8g
8A	8A	8f	8f
8F	8c	8e-	8a
=125	=125	=125	=125
8BB-	8d	8d	4b-
8r	8f	8f	.
8FF	8r	8r	8cc
8r	8A	8e-	16b-
.	.	.	16cc
=126	=126	=126	=126
4BB-	8r	8r	4.b-
.	16B-	8d	.
.	16F	.	.
4r	8D	8d	.
.	8F	8r	8cc
=127	=127	=127	=127
8r	8B-	2r	4dd
8BB-	8r	.	.
8r	8c	.	8ee-
8BB-	8r	.	16dd
.	.	.	16ee-
=128	=128	=128	=128
8r	4d	8r	4.ff
8BB-	.	16d	.
.	.	16f	.
8BB-	4r	8b-	.
8r	.	8r	16ddd
.	.	.	16ccc
=129	=129	=129	=129
2r	8r	8r	16bb-
.	.	.	16aa
.	8B-	8d	16gg
.	.	.	16ff
.	8c	8e-	16ee-
.	.	.	16dd
.	8d	8f	16cc
.	.	.	16b-
=130	=130	=130	=130
2r	8c	8e-	8a
.	8c	8e-	8a
.	8c	8e-	8a
.	8r	8r	16eee-
.	.	.	16ddd
=131	=131	=131	=131
2r	8r	8r	16ccc
.	.	.	16bb-
.	8c	8e-	16aa
.	.	.	16gg
.	8d	8f	16ff
.	.	.	16ee-
.	8e-	8g	16dd
.	.	.	16cc
=132	=132	=132	=132
4.r	8d	8f	8b-
.	8d	8f	8b-
.	8d	8f	8b-
16BB-	16D	8dd	8ff
16C	16E-	.	.
=133	=133	=133	=133
16D	16F	8dd	8ff
16E-	16G	.	.
16F	16A	8dd	8ff
16G	16B-	.	.
16A	16c	8dd	8ff
16B-	16d	.	.
16c	16e-	8dd	8ff
16d	16f	.	.
=134	=134	=134	=134
4.e-	4.g	4dd	4ff
.	.	8cc	8ee-
8e	16g	8b-	8dd
.	16a	.	.
=135	=135	=135	=135
2f	4b-	4f	8cc
.	.	.	8cc
.	4a	4r	16cc
.	.	.	16b-
.	.	.	16cc
.	.	.	16dd
=136	=136	=136	=136
4B-	4b-	8r	4b-
.	.	16d	.
.	.	16f	.
4r	4r	8b-	4r
.	.	16dd	.
.	.	16cc	.
=137	=137	=137	=137
8r	8r	16b-	8r
.	.	16a	.
8BB-	8F	16g	8dd
.	.	16f	.
8BB-	8F	16e-	8dd
.	.	16d	.
8BB-	8F	16c	8dd
.	.	16B-	.
=138	=138	=138	=138
4C	4F	8A	16ee-
.	.	.	16ff
.	.	8A	16ee-
.	.	.	16dd
4r	4r	8A	8ee-
.	.	16ee-	8r
.	.	16dd	.
=139	=139	=139	=139
8r	8r	16cc	8r
.	.	16b-	.
8C	8A	16a	8ee-
.	.	16g	.
8C	8A	16f	8ee-
.	.	16e-	.
8C	8A	16d	8ee-
.	.	16c	.
=140	=140	=140	=140
4.D	4.A-	8B-	16ff
.	.	.	16gg
.	.	8B-	16ff
.	.	.	16ee-
.	.	8B-	8ff
16BB-	16D	16aa-	16ccc
16C	16E-	16gg	16bb-
=141	=141	=141	=141
16D	16F	16ff	16aa-
16E-	16G	16ee-	16gg
16F	16A-	16dd	16ff
16G	16B-	16cc	16ee-
16A-	16c	16b-	16dd
16B-	16d	16a-	16cc
16c	16e-	16g	16b-
16d	16f	16f	16a-
=142	=142	=142	=142
4e-	8g	8e-	8g
.	8e-	4b-	4gg
4r	8d	.	.
.	8b-	8b-	[8ff
=143	=143	=143	=143
2r	8c	4a	8ff]
.	8f	.	4ee-
.	8B-	4b-	.
.	8f	.	[8dd
=144	=144	=144	=144
2r	8E-	2g	8dd]
.	8e-	.	4cc
.	8E	.	.
.	8e	.	8b-
=145	=145	=145	=145
4.r	4f	4f	8a
.	.	.	16gg
.	.	.	16ff
.	8r	4r	8ff
8F	8A	.	8ee-
=146	=146	=146	=146
4B-	4d	2r	8dd
.	.	.	8ff
8c	8e-	.	8a
16B-	16d	.	16g
16c	16e-	.	16a
=147	=147	=147	=147
4.d	4.f	4.r	8b-
.	.	.	16gg
.	.	.	16ff
.	.	.	8ff
8c	8e-	8a	8ff
=148	=148	=148	=148
4d	4f	4b-	[2ff
8e-	8g	8cc	.
16d	16f	16b-	.
16e-	16g	16cc	.
=149	=149	=149	=149
4.f	4.a-	4.dd	8ff]
.	.	.	16ccc
.	.	.	16bb-
.	.	.	8bb-
8f	8a-	8dd	8bb-
=150	=150	=150	=150
4g	4b-	4ee-	8bb-
.	.	.	16ccc
.	.	.	16bb-
8f	8a-	8dd	[4bb-
16e-	16g	16cc	.
16f	16a-	16dd	.
=151	=151	=151	=151
4g	4b-	4ee-	8bb-]
.	.	.	16ccc
.	.	.	16bb-
8f	8a-	8dd	[4bb-
16e-	16g	16cc	.
16f	16a-	16dd	.
=152	=152	=152	=152
2g	2b-	[2ee-	16bb-]
.	.	.	16ddd
.	.	.	16eee-
.	.	.	16ddd
.	.	.	16eee-
.	.	.	16ddd
.	.	.	16ccc
.	.	.	16bb-
=153	=153	=153	=153
2g-	[2cc	2ee-_	16aa
.	.	.	16ccc
.	.	.	16eee-
.	.	.	16ccc
.	.	.	16eee-
.	.	.	16ccc
.	.	.	16aa
.	.	.	16ccc
=154	=154	=154	=154
8f	2cc_	2ee-_	16aa
.	.	.	16ccc
8g-	.	.	16eee-
.	.	.	16ccc
8f	.	.	16aa
.	.	.	16ccc
8g-	.	.	16eee-
.	.	.	16ccc
=155	=155	=155	=155
2f	4.cc]	4ee-]	16aa
.	.	.	16bb-
.	.	.	16ccc
.	.	.	16bb-
.	.	4cc	16aa
.	.	.	16gg
.	8a	.	16ff
.	.	.	16ee-
=156	=156	=156	=156
4B-	4b-	4dd	16dd
.	.	.	16aa
.	.	.	16bb-
.	.	.	16aa
4r	4r	4r	16bb-
.	.	.	16ff#
.	.	.	16gg
.	.	.	16ff#
=157	=157	=157	=157
2r	2r	16r	16gg
.	.	16d	16dd
.	.	16e-	16ee-
.	.	16d	16dd
.	.	16e-	16ee-
.	.	16B	16b
.	.	16c	16cc
.	.	16B	16b
=158	=158	=158	=158
4r	16r	16c	16cc
.	16G	16g	16g
.	16A-	16a-	16a-
.	16G	16g	16g
16r	16A-	16a-	16a-
16F#	16F#	16f#	16f#
16G	16G	16g	16g
16F#	16F#	16f#	16f#
=159	=159	=159	=159
16G	16G	16g	16g
16D	16D	16d	16d
16E-	16E-	16e-	16e-
16D	16D	16d	16d
16E-	16E-	16e-	16e-
16BB	16D	16B	16B
16C	16C	16c	16c
16BB	16D	16B	16B
=160	=160	=160	=160
8C	8C	8c	8c
8E-	8E-	8e-	8e-
8G	8G	8g	8g
8B	8B	8B	8b
=161	=161	=161	=161
4c	4c	8c	8cc
.	.	8e-	8ee-
4r	4r	8f#	8ff#
.	.	8g	8gg
=162	=162	=162	=162
8F	8F	8f	8f
8r	8r	8dd	8ff
8F	8c	8r	8r
8r	8r	8cc	8ee-
=163	=163	=163	=163
8F	8d	8r	8r
8r	8r	8b-	8dd
8F	8e-	8r	8r
8r	8r	8a	8cc
=164	=164	=164	=164
4BB-	8r	8r	[2bb-
.	8f	8dd	.
4r	8d	8b-	.
.	8g	8ee-	.
=165	=165	=165	=165
4.r	8e-	8cc	4.bb-]
.	8a-	8ff	.
.	8f	8dd	.
8c	8F	8e-	8aa-
=166	=166	=166	=166
2B	[2G	2d	8gg
.	.	.	8ff#
.	.	.	8gg
.	.	.	8ff
=167	=167	=167	=167
4c	8G]	8e-	8ee-
.	8g	8ee-	4ccc
4r	8e-	8cc	.
.	8a-	8ff	[8ccc
=168	=168	=168	=168
4.r	8f	8dd	8ccc]
.	8b-	8gg	4ccc
.	8g	8ee	.
8e	8cc	8gg	8bb-
=169	=169	=169	=169
4.f	8f	8ff	4.aa
.	8cc	8ee-	.
.	[4a	[4cc	.
8a	.	.	8ccc
=170	=170	=170	=170
4.f	8a]	8cc]	4.aa
.	8cc	8ee-	.
.	[4a	4cc	.
8a	.	.	8ccc
=171	=171	=171	=171
4.f	8a]	8ee-	4.aa
.	8ee-	8gg-	.
.	[4cc	[4ee-	.
8a	.	.	8ccc
=172	=172	=172	=172
4.f	8cc]	8ee-]	4.aa
.	8ee-	8gg-	.
.	[4cc	[4ee-	.
8a	.	.	8ccc
=173	=173	=173	=173
8f	8cc]	8ee-]	8aa
4.r	8ee-	8gg-	4.r
.	8cc	8ee-	.
.	8ee-	8gg-	.
=174	=174	=174	=174
2r	8cc	8ee-	2r
.	8ee-	8gg-	.
.	8cc	8ee-	.
.	8ee-	8gg-	.
=175	=175	=175	=175
4.r	8cc	8ee-	4.r
.	8ee-	8gg-	.
.	8cc	8ee-	.
8c	8ee-	8gg-	[8aa-
=176	=176	=176	=176
8e-	8cc	8ee-	8aa-]
8c	8ee-	8gg-	4aa-
8e-	8cc	8ee-	.
8c	8ee-	8gg-	8aa-
=177	=177	=177	=177
4e-	4g-	8ee-	16gg
.	.	.	16aa-
.	.	8cc	16bb-
.	.	.	16aa-
4AA-	8c	8ee-	16gg-
.	.	.	16ff
.	8e-	8cc	16gg-
.	.	.	16ee-
=178	=178	=178	=178
[2D-	2f	2a-	8dd-
.	.	.	4dd-
.	.	.	16ff
.	.	.	16dd-
=179	=179	=179	=179
2D-]	2e-	2g-	16cc
.	.	.	16dd-
.	.	.	16ee-
.	.	.	16cc
.	.	.	16a-
.	.	.	16b-
.	.	.	16cc
.	.	.	16a-
=180	=180	=180	=180
8D-	8f	8f	8dd-
4D-	4f	4a-	4dd-
[8D-	8f	8a-	8aa-
=181	=181	=181	=181
8D-]	8e-	8cc 8g-	16gg
.	.	.	16aa-
4D-	4e-	4cc 4g-	16bb-
.	.	.	16aa-
.	.	.	16gg-
.	.	.	16ff
[8D-	8e-	8cc 8g-	16gg-
.	.	.	16ee-
=182	=182	=182	=182
8D-]	8f	8dd- 8f	8dd-
4D-	4f	4a-	4dd-
8D-	8f	8a-	8ff
=183	=183	=183	=183
8AA	8e- 8c	8f	16ee
.	.	.	16ff
4AA	4c 4e-	4f	16gg-
.	.	.	16ff
.	.	.	16ee-
.	.	.	16dd-
8AA	8c 8e-	8f	16ee-
.	.	.	16cc
=184	=184	=184	=184
8BB-	8d-	8f	8b-
4BB-	4d-	4f	4b-
8BB-	8d-	8f	16dd-
.	.	.	16cc
=185	=185	=185	=185
8GG-	8B-	8e	16a
.	.	.	16b-
4GG-	4B-	4e	16cc
.	.	.	16b-
.	.	.	8dd-
8GG-	8B-	8e	8e
=186	=186	=186	=186
[2FF	8A	4f	16f
.	.	.	16a
.	8B-	.	16g
.	.	.	16b-
.	8c	8r	16a
.	.	.	16f
.	8B-	8c	16g
.	.	.	16e
=187	=187	=187	=187
2FF_	8A	4f	16f
.	.	.	16a
.	8B-	.	16g
.	.	.	16b-
.	8c	8r	16a
.	.	.	16f
.	8B-	8c	16g
.	.	.	16e
=188	=188	=188	=188
2FF_	4F	8f	16f
.	.	.	16a
.	.	8e	16g
.	.	.	16b-
.	4r	8e-	16a
.	.	.	16cc
.	.	8d	16b-
.	.	.	16dd
=189	=189	=189	=189
2FF]	2r	8A	16cc
.	.	.	16ee-
.	.	8B-	16dd
.	.	.	16ff
.	.	8c	16ee-
.	.	.	16gg
.	.	8a	16ff
.	.	.	16ee-
=190	=190	=190	=190
4BB-	4.r	16b-	16dd
.	.	16dd	16ff
.	.	16cc	16ee-
.	.	16b-	16dd
8r	.	16a	16cc
.	.	16cc	16ee-
8F	16f	16b-	16dd
.	16e-	16a	16cc
=191	=191	=191	=191
16B-	16d	4b-	4dd
16d	16f	.	.
16c	16e-	.	.
16B-	16d	.	.
16A	16c	4r	8r
16c	16e-	.	.
16B-	16d	.	16gg
16A	16c	.	16ff
=192	=192	=192	=192
4B-	4d	16b-	16dd
.	.	16dd	16ff
.	.	16cc	16ee-
.	.	16b-	16dd
8r	4r	16a	16cc
.	.	16cc	16ee-
8F	.	16b-	16dd
.	.	16a	16cc
=193	=193	=193	=193
16B-	16d	4b-	8dd
16d	16f	.	.
16c	16e-	.	4ff
16B-	16d	.	.
16A	16c	4r	.
16c	16e-	.	.
16B-	16d	.	8ff
16A	16c	.	.
=194	=194	=194	=194
16G	16B-	2r	16ff
16B-	16d	.	16dd
16A	16c	.	16ee-
16G	16B-	.	16ee-
16F	16A	.	16ee-
16A	16c	.	16cc
16G	16B-	.	16dd
16F	16A	.	16dd
=195	=195	=195	=195
16E-	4G	16g	16dd
16G	.	16b-	16g
16F	.	16a	16cc
16E-	.	16g	16cc
16D	4r	16f	16cc
16F	.	16a	16a
16E-	.	16g	16b-
16D	.	16f	16b-
=196	=196	=196	=196
4C	4r	2e-	16a
.	.	.	16b-
.	.	.	16cc
.	.	.	16dd
4FF	4cc	.	16ee-
.	.	.	16ff
.	.	.	16gg
.	.	.	16aa
=197	=197	=197	=197
4BB-	8dd	8d	4.bb-
.	8dd	4ff	.
4r	8dd	.	.
.	8ee-	8ff	16ccc
.	.	.	16aa
=198	=198	=198	=198
2r	8dd	[2ff	16bb-
.	.	.	16ddd
.	8ee-	.	16ccc
.	.	.	16aa
.	8dd	.	16bb-
.	.	.	16ddd
.	8ee-	.	16ccc
.	.	.	16aa
=199	=199	=199	=199
2r	8dd	2ff_	8bb-
.	8dd	.	4bb-
.	8dd	.	.
.	8ee-	.	16ccc
.	.	.	16aa
=200	=200	=200	=200
2r	8dd	2ff]	16bb-
.	.	.	16ddd
.	8ee-	.	16ccc
.	.	.	16aa
.	8dd	.	16bb-
.	.	.	16ddd
.	8ee-	.	16ccc
.	.	.	16aa
=201	=201	=201	=201
2r	4dd	2ff 2b-	16bb-
.	.	.	16ccc
.	.	.	16ddd
.	.	.	16eee-
.	4d	.	16fff
.	.	.	16ggg
.	.	.	16aaa
.	.	.	16bbb-
=202	=202	=202	=202
2r	8e-	4gg 4b-	8bbb-
.	8r	.	8ggg
.	8e-	8r	8r
.	8r	8cc	8eee-
=203	=203	=203	=203
2r	8f	8r	8r
.	8r	8b-	8ddd
.	8e-	8r	8r
.	8r	8a	8ccc
=204	=204	=204	=204
8r	8r	8dd	8fff
8d	8f	8r	8r
8r	8r	8cc	8eee-
8c	8e-	8r	8r
=205	=205	=205	=205
8r	8r	8b-	8ddd
8B-	8d	8r	8r
8r	8r	8f	8ccc
8F	8c	8r	8r
=206	=206	=206	=206
8r	8r	8d	24bb-
.	.	.	24bb-
.	.	.	24bb-
8G	8B-	8b-	8r
8r	4r	8r	24gg
.	.	.	24gg
.	.	.	24gg
8g	.	8b-	8r
=207	=207	=207	=207
8r	2r	8r	24ff
.	.	.	24ff
.	.	.	24ff
8g	.	8b-	8r
8r	.	8r	24ee
.	.	.	24ee
.	.	.	24ee
8g	.	8b-	8r
=208	=208	=208	=208
8f	2r	2a	[2ff
8f	.	.	.
8f	.	.	.
8f	.	.	.
=209	=209	=209	=209
8f	2r	2a-	8ff]
8f	.	.	8ee-
8f	.	.	8dd
8f	.	.	8cc
=210	=210	=210	=210
4f	4a-	8d	8b
.	.	4b	4dd
8e-	8g	.	.
8r	8r	8cc	8ee-
=211	=211	=211	=211
4e-	4g-	8r	8r
.	.	4a	4cc
8d	4f	.	.
8BB-	.	[8b-	[8dd
=212	=212	=212	=212
4E-	8g	8b-]	8dd]
.	8e-	8g	8cc
4F	8d	8f	8b-
.	8c	8e-	8a
=213	=213	=213	=213
8r	8r	4b	4aa-
4d	4f	.	.
.	.	8cc	8gg
8e-	8e-	8r	8r
=214	=214	=214	=214
8r	8r	4a	4gg-
4c	4e-	.	.
.	.	4b-	[4ff
8d	8d	.	.
=215	=215	=215	=215
8e-	8e-	4g	8ff]
8C	8cc	.	8ee-
8F	8b-	8f	8dd
8F	8a	8e-	8cc
=216	=216	=216	=216
8B-	8b-	8d	4b-
8B-	4f	4f 4d	.
8B-	.	.	8r
8B-	[8f	8f 8d	8b-
=217	=217	=217	=217
8B-	8f]	8e- 8c	16a
.	.	.	16b-
8B-	4f	4e- 4c	16cc
.	.	.	16b-
8B-	.	.	16a
.	.	.	16f
8B-	[8f	8e- 8c	16g
.	.	.	16a
=218	=218	=218	=218
8B-	8f]	8d 8B-	8b-
8B-	4f	4f 4d	4b-
8B-	.	.	.
8B-	[8f	8f 8d	16dd
.	.	.	16b-
=219	=219	=219	=219
8B-	8f]	8e- 8c	16a
.	.	.	16b-
8B-	4f	4e- 4c	16cc
.	.	.	16b-
8B-	.	.	16a
.	.	.	16f
8B-	[8f	8e- 8c	16g
.	.	.	16a
=220	=220	=220	=220
8BB-	8f]	8d 8B-	4.b-
4BB-	4F	4b- 4d	.
[8BB-	[8F	8b- 8d	8bb-
=221	=221	=221	=221
8BB-]	8F]	8e- 8cc	16aa
.	.	.	16bb-
4BB-	4F	4cc 4e-	16ccc
.	.	.	16bb-
.	.	.	16aa
.	.	.	16ff
[8BB-	[8F	8cc 8e-	16gg
.	.	.	16aa
=222	=222	=222	=222
8BB-]	8F]	8b- 8d	8bb-
4BB-	4F	4b- 4d	4bb-
[8BB-	[8F	8b- 8d	16ddd
.	.	.	16bb-
=223	=223	=223	=223
8BB-]	8F]	8e- 8cc	16aa
.	.	.	16bb-
4BB-	4F	4cc 4e-	16ccc
.	.	.	16bb-
.	.	.	16aa
.	.	.	16ff
8BB-	8F	8e- 8cc	16gg
.	.	.	16aa
=224	=224	=224	=224
[2BB-	8F	4.b- 4.d	4.bb-
.	8d	.	.
.	8f	.	.
.	8b-	8dd	8ff
=225	=225	=225	=225
2BB-_	16a	2ee-	2gg-
.	16b-	.	.
.	16cc	.	.
.	16b-	.	.
.	16a	.	.
.	16g	.	.
.	16a	.	.
.	16f	.	.
=226	=226	=226	=226
2BB-_	4.b-	4.dd	8ff
.	.	.	8bb-
.	.	.	8ddd
.	8d	8f	8b-
=227	=227	=227	=227
2BB-_	2e-	2g-	16a
.	.	.	16b-
.	.	.	16cc
.	.	.	16b-
.	.	.	16a
.	.	.	16ee-
.	.	.	16cc
.	.	.	16a
=228	=228	=228	=228
4.BB-]	4d	4.f	8b-
.	.	.	8dd
.	4r	.	8ff
8BB-	.	8d	8f
=229	=229	=229	=229
16AA	2r	2e-	2g-
16BB-	.	.	.
16C	.	.	.
16BB-	.	.	.
16AA	.	.	.
16FF	.	.	.
16GG	.	.	.
16AA	.	.	.
=230	=230	=230	=230
2BB-	4.r	4.d	8f
.	.	.	8b-
.	.	.	8dd
.	8F	8d	8b-
=231	=231	=231	=231
2FF	16D	16B	2a
.	16E-	16c	.
.	16F	16d	.
.	16E-	16c	.
.	16C	16e-	.
.	16E-	16c	.
.	16C	16e-	.
.	16E-	16c	.
=232	=232	=232	=232
2BB-	8D	8B-	2b-
.	8F	8d	.
.	8D	8B-	.
.	8F	8d	.
=233	=233	=233	=233
2FF	16D	16B	2a
.	16E-	16c	.
.	16F	16d	.
.	16E-	16c	.
.	16C	16e-	.
.	16E-	16c	.
.	16C	16e-	.
.	16E-	16c	.
=234	=234	=234	=234
8BB-	8D	8d	8b-
8r	8r	8r	8r
8BB-	8D	8f	8dd
8r	8r	8r	8r
=235	=235	=235	=235
4BB-	4D	4d	4b-
4r	4r	4r	4r
==	==	==	==
*-	*-	*-	*-
!!!RWG1: This file contains only pitch and duration data.
!!!RWG2: Transposing instruments are not transposed.
!!!RWG3: Spines may have incompatible meters.
!!!RWG4: Durations of rests and tied notes may be interpreted.
!!!RWG: Key is interpreted using the Humdrum key tool.
!!!GTL: 6 Quartetti ("Apponyi")
!!!AFT: stage1
!!!END: 1997/04/15
!!!KEY: 3364015632
!!!EMD: Converted from MuseData to Humdrum Dec 16, 2000, by Andreas Kornstaedt using muse2kern.
!!!EMD: Manual editing by Craig Sapp, Nov 2001
